X: 26058
T: McCollum's
R: jig
M: 6/8
K: Dmajor
|:EF2 AFE|DFA B2d|BAB AFD|EF E2 DF|
EFA FED|FAd efe|dBA FEF|DD D4:|
a2f gfe|dBd BAB|AFA Bde|def2 ee|
a2f gfe|dBd BAd|efe dBA|FEF DDD|
a2f gfe|dBd BAB|AFA Bde|def2 ee|
a2f aab|afa fde|dBe dBA|FEF DDD||

